images/social/dribbble.svg

<?xml version="1.0"?><svg xmlns="http://www.w3.org/2000/svg"  viewBox="0 0 50 50" width="50px" height="50px">    <path d="M 9 4 C 6.24 4 4 6.24 4 9 L 4 41 C 4 43.76 6.24 46 9 46 L 41 46 C 43.76 46 46 43.76 46 41 L 46 9 C 46 6.24 43.76 4 41 4 L 9 4 z M 26.169922 11 C 28.139922 11 30 12.77 30 21.5 C 30 24.62 29.469141 29.150859 27.619141 32.880859 C 28.419141 33.920859 29.22 34.25 29.75 34 C 31.25 33.28 32.209375 30.750234 33.109375 27.990234 C 33.359375 27.240234 34.190937 26.830547 34.960938 27.060547 C 35.740938 27.300547 36.179688 28.099844 35.929688 28.839844 C 35.169688 31.179844 33.040312 36.980469 29.820312 36.980469 C 28.800313 36.980469 27.429141 36.940156 26.119141 35.660156 C 24.649141 37.660156 22.820391 39 20.650391 39 C 16.060391 39 14 35.510781 14 32.050781 C 14 28.380781 15.880859 24.050781 20.130859 24.050781 C 20.850859 24.050781 21.510078 24.180859 22.080078 24.380859 C 22.000078 23.380859 22 22.580859 22 21.380859 C 22 21.270859 22.039922 11 26.169922 11 z M 26.289062 14.050781 C 25.679062 15.090781 24.960938 18.129141 24.960938 21.369141 C 24.960938 24.889141 25.370234 27.589844 25.990234 29.589844 C 26.920234 27.019844 27.039062 24.03 27.039062 21.5 C 27.039062 16.74 26.759062 14.710781 26.289062 14.050781 z M 20.119141 27 C 16.939141 27 17 31.929141 17 32.119141 C 17 33.359141 17.289141 36 20.619141 36 C 21.899141 36 23.200781 34.979687 24.300781 33.179688 C 23.630781 31.929688 23.000078 29.97 22.580078 28 C 22.500078 27.94 22.419609 27.880547 22.349609 27.810547 C 22.349609 27.810547 21.379141 27 20.119141 27 z"/></svg>

<?xml version="1.0" encoding="utf-8"?>
<!-- Generator: Adobe Illustrator 27.7.0, SVG Export Plug-In . SVG Version: 6.00 Build 0)  -->
<svg version="1.1" id="Ebene_1" xmlns="http://www.w3.org/2000/svg" xmlns:xlink="http://www.w3.org/1999/xlink" x="0px" y="0px"
	 viewBox="0 0 50 50" style="enable-background:new 0 0 50 50;" xml:space="preserve">
<style type="text/css">
	.st0{fill:#F5F5F5;}
</style>
<path class="st0" d="M9,4C6.2,4,4,6.2,4,9v32c0,2.8,2.2,5,5,5h32c2.8,0,5-2.2,5-5V9c0-2.8-2.2-5-5-5H9z M26.2,11
	c2,0,3.8,1.8,3.8,10.5c0,3.1-0.5,7.7-2.4,11.4c0.8,1,1.6,1.4,2.1,1.1c1.5-0.7,2.5-3.2,3.4-6c0.2-0.8,1.1-1.2,1.9-0.9
	c0.8,0.2,1.2,1,1,1.8C35.2,31.2,33,37,29.8,37c-1,0-2.4,0-3.7-1.3c-1.5,2-3.3,3.3-5.5,3.3c-4.6,0-6.7-3.5-6.7-6.9c0-3.7,1.9-8,6.1-8
	c0.7,0,1.4,0.1,1.9,0.3c-0.1-1-0.1-1.8-0.1-3C22,21.3,22,11,26.2,11z M26.3,14.1c-0.6,1-1.3,4.1-1.3,7.3c0,3.5,0.4,6.2,1,8.2
	c0.9-2.6,1-5.6,1-8.1C27,16.7,26.8,14.7,26.3,14.1z M20.1,27c-3.2,0-3.1,4.9-3.1,5.1c0,1.2,0.3,3.9,3.6,3.9c1.3,0,2.6-1,3.7-2.8
	C23.6,31.9,23,30,22.6,28c-0.1-0.1-0.2-0.1-0.2-0.2C22.3,27.8,21.4,27,20.1,27z"/>
</svg>
